X:49
T:Come West Along The Road
R:reel
M:4/4
L:1/8
K:Gmaj
|:d2BG dG (3Bcd|G2(3Bcd efge|d2BG dG (3Bcd| ABcd edBe|
d2BG dG (3Bcd|G2(3Bcd efge|d2BG dG (3Bcd| ABcd edBd||
|g2bg egdg|egdg edBd|g2bg egdg|ABcd edBd|
|g2bg egdg|egdg edBd|gabg efge|dega bage||

